X:2523
T:Cantar de Chigre (CT 352)
R:Chigre
C:Tradicional
S:Música Tradicional Asturiana, (C) Tello & Tito. Asturies, 2001.
S:http://pagina.de/MusTradAst <telloytito@asturies.org>
N:Canción de empleo indeterminado, transcrita en Murias, ayuntamiento de Quirós.
N:Se canta generalmente en reuniónes tabernarias, y sirve como desafío entre dos personas o bandos rivales con la letra de las dos últimas estrofas.
N:Más de una vez esta copla ha dado lugar a sangrientas luchas.
O:Murias (Quirós)
A:Asturies
Z:Cancioneru de Torner 352
M:3/8
L:1/8
Q:3/8=88
W:Galán, si vas a mi casa,
W:cantando, bailando,
W:navegando, navegué,
W:vete por lo retirado y olé.
W:
W:Que tengo una vecina,
W:cantando, bailando,
W:navegando, navegué,
W:que con todos tien cuidado y olé.
W:
W:-----------------------
W:Todos somos unos tontos
W:cantando, bailando,
W:navegando, navegué,
W:porque nos conocemos;
W:
W:sólo nos diferenciamos
W:cantando, bailando,
W:navegando, navegué,
W:en un poco más o menos.
K:C
G|:c2c|cBc|dBA|BAA|BAA/2A/2|
BAG/2E/2|D3-|DzD|B2B|BAB|dcA|G3-|[1 G z G:|[2 G z2||


